icons/square-chevron-left.svg

<svg xmlns="http://www.w3.org/2000/svg" width="24" height="24" viewBox="0 0 24 24">
  <path d="M20,2 C21.1045695,2 22,2.8954305 22,4 L22,20 C22,21.1045695 21.1045695,22 20,22 L4,22 C2.8954305,22 2,21.1045695 2,20 L2,4 C2,2.8954305 2.8954305,2 4,2 L20,2 Z M14.7071068,7.29289322 C14.3165825,6.90236893 13.6834175,6.90236893 13.2928932,7.29289322 L13.2928932,7.29289322 L9.29289322,11.2928932 L9.20970461,11.3871006 C8.90467972,11.7793918 8.93240926,12.3466228 9.29289322,12.7071068 L9.29289322,12.7071068 L13.2928932,16.7071068 L13.3871006,16.7902954 C13.7793918,17.0953203 14.3466228,17.0675907 14.7071068,16.7071068 L14.7071068,16.7071068 L14.7902954,16.6128994 C15.0953203,16.2206082 15.0675907,15.6533772 14.7071068,15.2928932 L14.7071068,15.2928932 L11.415,12 L14.7071068,8.70710678 L14.7902954,8.61289944 C15.0953203,8.22060824 15.0675907,7.65337718 14.7071068,7.29289322 Z"/>
</svg>

<svg xmlns="http://www.w3.org/2000/svg" viewBox="0 0 24 24">
  <path d="M20 2a2 2 0 0 1 2 2v16a2 2 0 0 1-2 2H4a2 2 0 0 1-2-2V4c0-1.1.9-2 2-2h16zm-5.3 5.3a1 1 0 0 0-1.4 0l-4 4-.09.09a1 1 0 0 0 .08 1.32l4 4 .1.08a1 1 0 0 0 1.32-.08l.08-.1a1 1 0 0 0-.08-1.32L11.4 12l3.3-3.3.08-.09a1 1 0 0 0-.08-1.32z"/>
</svg>
